P3
# Pg12用オリジナル背景素材。Learning_language リポジトリ用に作成。
80 60
255
255 255 255 21 21 54 8 8 24 8 8 24 8 8 24 8 8 24 8 8 24 8 8 24 8 8 24 8 8 24 8 8 24 8 8 24 8 8 24 8 8 24 8 8 24 8 8 24 8 8 24 8 8 24 8 8 24 8 8 24 8 8 24 8 8 24 8 8 24 8 8 24 8 8 24 8 8 24 8 8 24 8 8 24 8 8 24 21 21 54 21 21 54 8 8 24 8 8 24 8 8 24 8 8 24 8 8 24 8 8 24 8 8 24 8 8 24 8 8 24 8 8 24 8 8 24 8 8 24 8 8 24 8 8 24 8 8 24 8 8 24 8 8 24 8 8 24 8 8 24 8 8 24 8 8 24 8 8 24 8 8 24 8 8 24 8 8 24 8 8 24 8 8 24 21 21 54 21 21 54 8 8 24 8 8 24 8 8 24 8 8 24 8 8 24 8 8 24 8 8 24 8 8 24 8 8 24 8 8 24 8 8 24 8 8 24 8 8 24 8 8 24 8 8 24 8 8 24 8 8 24 8 8 24 8 8 24 8 8 24
21 21 54 21 21 54 8 8 24 8 8 24 8 8 24 8 8 24 8 8 24 8 8 24 8 8 24 8 8 24 8 8 24 8 8 24 8 8 24 8 8 24 8 8 24 8 8 24 8 8 24 8 8 24 8 8 24 8 8 24 8 8 24 8 8 24 8 8 24 8 8 24 8 8 24 8 8 24 8 8 24 8 8 24 8 8 24 21 21 54 21 21 54 8 8 24 8 8 24 8 8 24 8 8 24 8 8 24 8 8 24 8 8 24 8 8 24 8 8 24 8 8 24 8 8 24 8 8 24 8 8 24 8 8 24 8 8 24 8 8 24 8 8 24 8 8 24 8 8 24 174 184 232 8 8 24 8 8 24 8 8 24 8 8 24 8 8 24 8 8 24 8 8 24 21 21 54 21 21 54 8 8 24 8 8 24 8 8 24 8 8 24 8 8 24 8 8 24 8 8 24 8 8 24 8 8 24 8 8 24 8 8 24 8 8 24 8 8 24 8 8 24 8 8 24 8 8 24 8 8 24 8 8 24 8 8 24 8 8 24
21 21 54 8 8 24 8 8 24 8 8 24 8 8 24 8 8 24 8 8 24 8 8 24 8 8 24 8 8 24 8 8 24 8 8 24 8 8 24 8 8 24 8 8 24 8 8 24 8 8 24 8 8 24 8 8 24 8 8 24 8 8 24 8 8 24 8 8 24 8 8 24 8 8 24 8 8 24 8 8 24 8 8 24 21 21 54 255 255 255 8 8 24 8 8 24 8 8 24 8 8 24 8 8 24 8 8 24 8 8 24 8 8 24 8 8 24 8 8 24 8 8 24 8 8 24 8 8 24 8 8 24 8 8 24 8 8 24 8 8 24 8 8 24 8 8 24 8 8 24 8 8 24 8 8 24 8 8 24 8 8 24 8 8 24 8 8 24 174 184 232 21 21 54 21 21 54 8 8 24 8 8 24 8 8 24 8 8 24 8 8 24 8 8 24 8 8 24 8 8 24 8 8 24 8 8 24 8 8 24 8 8 24 8 8 24 8 8 24 8 8 24 8 8 24 8 8 24 8 8 24 8 8 24 8 8 24 8 8 24
8 8 24 8 8 24 8 8 24 8 8 24 8 8 24 8 8 24 8 8 24 8 8 24 8 8 24 8 8 24 8 8 24 8 8 24 8 8 24 8 8 24 8 8 24 8 8 24 8 8 24 8 8 24 8 8 24 8 8 24 8 8 24 8 8 24 8 8 24 8 8 24 255 255 255 8 8 24 8 8 24 21 21 54 21 21 54 8 8 24 8 8 24 8 8 24 8 8 24 8 8 24 8 8 24 8 8 24 8 8 24 8 8 24 8 8 24 8 8 24 8 8 24 8 8 24 8 8 24 8 8 24 8 8 24 8 8 24 8 8 24 8 8 24 8 8 24 8 8 24 8 8 24 8 8 24 8 8 24 8 8 24 8 8 24 8 8 24 21 21 54 21 21 54 8 8 24 8 8 24 8 8 24 8 8 24 8 8 24 8 8 24 8 8 24 8 8 24 8 8 24 8 8 24 8 8 24 8 8 24 8 8 24 8 8 24 8 8 24 8 8 24 8 8 24 8 8 24 8 8 24 8 8 24 8 8 24 8 8 24
8 8 24 8 8 24 8 8 24 8 8 24 8 8 24 8 8 24 8 8 24 8 8 24 174 184 232 8 8 24 8 8 24 8 8 24 8 8 24 8 8 24 8 8 24 8 8 24 8 8 24 8 8 24 8 8 24 8 8 24 8 8 24 8 8 24 8 8 24 8 8 24 8 8 24 8 8 24 8 8 24 21 21 54 21 21 54 8 8 24 8 8 24 8 8 24 8 8 24 8 8 24 8 8 24 8 8 24 8 8 24 8 8 24 8 8 24 8 8 24 8 8 24 8 8 24 8 8 24 8 8 24 8 8 24 8 8 24 255 255 255 8 8 24 8 8 24 8 8 24 8 8 24 8 8 24 8 8 24 8 8 24 8 8 24 8 8 24 21 21 54 21 21 54 8 8 24 8 8 24 8 8 24 8 8 24 8 8 24 8 8 24 8 8 24 8 8 24 8 8 24 8 8 24 8 8 24 8 8 24 8 8 24 8 8 24 8 8 24 8 8 24 8 8 24 8 8 24 8 8 24 8 8 24 8 8 24 8 8 24
8 8 24 8 8 24 8 8 24 8 8 24 8 8 24 8 8 24 8 8 24 8 8 24 8 8 24 8 8 24 8 8 24 8 8 24 8 8 24 8 8 24 8 8 24 8 8 24 8 8 24 8 8 24 8 8 24 8 8 24 8 8 24 8 8 24 8 8 24 8 8 24 8 8 24 8 8 24 21 21 54 21 21 54 8 8 24 174 184 232 8 8 24 8 8 24 8 8 24 8 8 24 8 8 24 8 8 24 8 8 24 8 8 24 8 8 24 8 8 24 8 8 24 8 8 24 8 8 24 8 8 24 8 8 24 8 8 24 8 8 24 8 8 24 8 8 24 8 8 24 8 8 24 8 8 24 8 8 24 8 8 24 8 8 24 21 21 54 21 21 54 8 8 24 8 8 24 8 8 24 8 8 24 8 8 24 8 8 24 8 8 24 8 8 24 8 8 24 8 8 24 8 8 24 8 8 24 8 8 24 8 8 24 8 8 24 8 8 24 8 8 24 8 8 24 8 8 24 8 8 24 8 8 24 8 8 24 8 8 24
8 8 24 8 8 24 8 8 24 8 8 24 8 8 24 8 8 24 8 8 24 8 8 24 8 8 24 8 8 24 8 8 24 8 8 24 8 8 24 8 8 24 8 8 24 8 8 24 8 8 24 8 8 24 8 8 24 8 8 24 8 8 24 8 8 24 8 8 24 8 8 24 8 8 24 21 21 54 21 21 54 8 8 24 8 8 24 8 8 24 8 8 24 8 8 24 8 8 24 8 8 24 8 8 24 8 8 24 8 8 24 8 8 24 8 8 24 8 8 24 8 8 24 8 8 24 8 8 24 8 8 24 8 8 24 8 8 24 8 8 24 8 8 24 8 8 24 8 8 24 255 255 255 8 8 24 8 8 24 8 8 24 21 21 54 21 21 54 8 8 24 8 8 24 8 8 24 8 8 24 8 8 24 8 8 24 8 8 24 8 8 24 8 8 24 8 8 24 8 8 24 8 8 24 8 8 24 8 8 24 8 8 24 8 8 24 8 8 24 8 8 24 8 8 24 8 8 24 8 8 24 8 8 24 8 8 24 8 8 24
8 8 24 8 8 24 8 8 24 8 8 24 8 8 24 8 8 24 8 8 24 8 8 24 8 8 24 8 8 24 8 8 24 8 8 24 8 8 24 8 8 24 8 8 24 8 8 24 8 8 24 8 8 24 8 8 24 8 8 24 8 8 24 8 8 24 8 8 24 8 8 24 8 8 24 21 21 54 21 21 54 8 8 24 8 8 24 8 8 24 8 8 24 8 8 24 8 8 24 8 8 24 8 8 24 8 8 24 174 184 232 8 8 24 8 8 24 8 8 24 8 8 24 8 8 24 8 8 24 8 8 24 8 8 24 8 8 24 8 8 24 8 8 24 8 8 24 8 8 24 8 8 24 8 8 24 8 8 24 8 8 24 21 21 54 21 21 54 8 8 24 8 8 24 8 8 24 8 8 24 8 8 24 8 8 24 8 8 24 8 8 24 8 8 24 8 8 24 8 8 24 8 8 24 8 8 24 8 8 24 8 8 24 8 8 24 8 8 24 8 8 24 8 8 24 8 8 24 8 8 24 8 8 24 8 8 24 8 8 24
8 8 24 8 8 24 8 8 24 8 8 24 8 8 24 8 8 24 8 8 24 8 8 24 8 8 24 8 8 24 8 8 24 8 8 24 8 8 24 8 8 24 8 8 24 8 8 24 8 8 24 8 8 24 8 8 24 8 8 24 8 8 24 8 8 24 8 8 24 8 8 24 21 21 54 21 21 54 8 8 24 8 8 24 8 8 24 8 8 24 8 8 24 8 8 24 8 8 24 8 8 24 8 8 24 8 8 24 8 8 24 8 8 24 8 8 24 8 8 24 8 8 24 8 8 24 8 8 24 8 8 24 8 8 24 8 8 24 174 184 232 8 8 24 8 8 24 8 8 24 8 8 24 8 8 24 8 8 24 21 21 54 21 21 54 8 8 24 8 8 24 8 8 24 8 8 24 8 8 24 8 8 24 8 8 24 8 8 24 8 8 24 8 8 24 8 8 24 8 8 24 8 8 24 8 8 24 8 8 24 8 8 24 8 8 24 8 8 24 8 8 24 8 8 24 8 8 24 8 8 24 8 8 24 8 8 24 8 8 24
8 8 24 8 8 24 8 8 24 8 8 24 8 8 24 8 8 24 8 8 24 8 8 24 8 8 24 8 8 24 8 8 24 8 8 24 8 8 24 8 8 24 8 8 24 8 8 24 8 8 24 8 8 24 8 8 24 8 8 24 8 8 24 8 8 24 8 8 24 21 21 54 21 21 54 8 8 24 8 8 24 8 8 24 8 8 24 8 8 24 8 8 24 8 8 24 8 8 24 8 8 24 8 8 24 8 8 24 8 8 24 8 8 24 174 184 232 8 8 24 8 8 24 8 8 24 8 8 24 8 8 24 8 8 24 8 8 24 8 8 24 8 8 24 8 8 24 8 8 24 8 8 24 8 8 24 21 21 54 21 21 54 8 8 24 8 8 24 8 8 24 8 8 24 8 8 24 8 8 24 8 8 24 8 8 24 8 8 24 8 8 24 8 8 24 8 8 24 8 8 24 8 8 24 8 8 24 8 8 24 8 8 24 8 8 24 8 8 24 8 8 24 8 8 24 8 8 24 8 8 24 8 8 24 8 8 24 8 8 24
8 8 24 8 8 24 8 8 24 8 8 24 8 8 24 8 8 24 8 8 24 8 8 24 8 8 24 8 8 24 8 8 24 174 184 232 8 8 24 8 8 24 8 8 24 8 8 24 8 8 24 8 8 24 8 8 24 8 8 24 8 8 24 8 8 24 21 21 54 21 21 54 8 8 24 8 8 24 8 8 24 8 8 24 8 8 24 8 8 24 8 8 24 8 8 24 8 8 24 8 8 24 8 8 24 8 8 24 8 8 24 8 8 24 8 8 24 8 8 24 8 8 24 8 8 24 8 8 24 8 8 24 8 8 24 8 8 24 8 8 24 8 8 24 8 8 24 8 8 24 8 8 24 21 21 54 21 21 54 8 8 24 8 8 24 8 8 24 8 8 24 8 8 24 8 8 24 8 8 24 8 8 24 8 8 24 8 8 24 8 8 24 8 8 24 8 8 24 8 8 24 8 8 24 8 8 24 8 8 24 8 8 24 8 8 24 8 8 24 8 8 24 8 8 24 8 8 24 8 8 24 8 8 24 8 8 24 8 8 24
8 8 24 8 8 24 8 8 24 8 8 24 8 8 24 8 8 24 8 8 24 8 8 24 8 8 24 8 8 24 8 8 24 8 8 24 8 8 24 8 8 24 8 8 24 8 8 24 8 8 24 8 8 24 8 8 24 8 8 24 8 8 24 8 8 24 21 21 54 174 184 232 8 8 24 8 8 24 8 8 24 8 8 24 8 8 24 8 8 24 8 8 24 8 8 24 8 8 24 8 8 24 8 8 24 8 8 24 8 8 24 8 8 24 8 8 24 8 8 24 8 8 24 8 8 24 8 8 24 8 8 24 8 8 24 8 8 24 8 8 24 8 8 24 8 8 24 8 8 24 8 8 24 21 21 54 21 21 54 8 8 24 8 8 24 8 8 24 8 8 24 8 8 24 8 8 24 8 8 24 8 8 24 8 8 24 8 8 24 8 8 24 8 8 24 8 8 24 8 8 24 8 8 24 8 8 24 8 8 24 8 8 24 8 8 24 8 8 24 8 8 24 8 8 24 8 8 24 8 8 24 8 8 24 8 8 24 8 8 24
8 8 24 8 8 24 8 8 24 8 8 24 8 8 24 8 8 24 8 8 24 8 8 24 8 8 24 8 8 24 8 8 24 8 8 24 8 8 24 8 8 24 8 8 24 8 8 24 8 8 24 8 8 24 8 8 24 8 8 24 8 8 24 21 21 54 21 21 54 8 8 24 8 8 24 8 8 24 8 8 24 8 8 24 8 8 24 8 8 24 8 8 24 8 8 24 8 8 24 8 8 24 8 8 24 8 8 24 8 8 24 8 8 24 8 8 24 8 8 24 8 8 24 8 8 24 8 8 24 8 8 24 8 8 24 8 8 24 8 8 24 8 8 24 8 8 24 8 8 24 21 21 54 174 184 232 8 8 24 8 8 24 8 8 24 8 8 24 8 8 24 8 8 24 8 8 24 8 8 24 8 8 24 8 8 24 8 8 24 8 8 24 8 8 24 8 8 24 8 8 24 8 8 24 8 8 24 8 8 24 8 8 24 8 8 24 8 8 24 8 8 24 8 8 24 8 8 24 8 8 24 8 8 24 8 8 24 21 21 54
8 8 24 8 8 24 8 8 24 8 8 24 8 8 24 8 8 24 8 8 24 8 8 24 8 8 24 8 8 24 8 8 24 8 8 24 8 8 24 8 8 24 8 8 24 8 8 24 8 8 24 8 8 24 8 8 24 8 8 24 21 21 54 21 21 54 8 8 24 8 8 24 8 8 24 8 8 24 8 8 24 8 8 24 8 8 24 8 8 24 8 8 24 8 8 24 8 8 24 8 8 24 8 8 24 8 8 24 8 8 24 8 8 24 8 8 24 8 8 24 8 8 24 8 8 24 8 8 24 8 8 24 8 8 24 8 8 24 8 8 24 8 8 24 8 8 24 21 21 54 21 21 54 8 8 24 8 8 24 8 8 24 8 8 24 8 8 24 8 8 24 8 8 24 8 8 24 8 8 24 8 8 24 8 8 24 8 8 24 8 8 24 8 8 24 8 8 24 8 8 24 8 8 24 8 8 24 8 8 24 8 8 24 8 8 24 8 8 24 8 8 24 8 8 24 8 8 24 8 8 24 8 8 24 21 21 54 21 21 54
8 8 24 8 8 24 8 8 24 8 8 24 8 8 24 8 8 24 8 8 24 8 8 24 8 8 24 8 8 24 8 8 24 8 8 24 8 8 24 8 8 24 8 8 24 8 8 24 8 8 24 8 8 24 8 8 24 8 8 24 21 21 54 21 21 54 8 8 24 8 8 24 8 8 24 8 8 24 8 8 24 8 8 24 8 8 24 8 8 24 8 8 24 8 8 24 8 8 24 8 8 24 8 8 24 8 8 24 8 8 24 8 8 24 8 8 24 8 8 24 8 8 24 8 8 24 8 8 24 8 8 24 8 8 24 8 8 24 8 8 24 8 8 24 8 8 24 21 21 54 21 21 54 8 8 24 8 8 24 8 8 24 8 8 24 8 8 24 8 8 24 8 8 24 8 8 24 8 8 24 8 8 24 8 8 24 8 8 24 8 8 24 8 8 24 8 8 24 8 8 24 8 8 24 8 8 24 8 8 24 8 8 24 8 8 24 8 8 24 8 8 24 174 184 232 8 8 24 8 8 24 8 8 24 21 21 54 21 21 54
8 8 24 8 8 24 8 8 24 8 8 24 8 8 24 8 8 24 8 8 24 8 8 24 8 8 24 8 8 24 8 8 24 8 8 24 174 184 232 8 8 24 8 8 24 8 8 24 8 8 24 8 8 24 8 8 24 21 21 54 21 21 54 8 8 24 8 8 24 8 8 24 8 8 24 8 8 24 8 8 24 8 8 24 8 8 24 8 8 24 8 8 24 8 8 24 8 8 24 8 8 24 8 8 24 8 8 24 8 8 24 8 8 24 8 8 24 8 8 24 8 8 24 8 8 24 8 8 24 8 8 24 8 8 24 8 8 24 8 8 24 8 8 24 21 21 54 21 21 54 8 8 24 8 8 24 8 8 24 8 8 24 8 8 24 8 8 24 8 8 24 8 8 24 8 8 24 8 8 24 8 8 24 8 8 24 8 8 24 8 8 24 8 8 24 8 8 24 8 8 24 8 8 24 8 8 24 8 8 24 8 8 24 8 8 24 8 8 24 8 8 24 8 8 24 8 8 24 8 8 24 21 21 54 21 21 54 8 8 24
8 8 24 255 255 255 8 8 24 8 8 24 8 8 24 8 8 24 8 8 24 8 8 24 8 8 24 8 8 24 8 8 24 8 8 24 8 8 24 8 8 24 8 8 24 8 8 24 8 8 24 8 8 24 21 21 54 21 21 54 8 8 24 8 8 24 8 8 24 8 8 24 8 8 24 8 8 24 8 8 24 8 8 24 8 8 24 8 8 24 8 8 24 8 8 24 8 8 24 8 8 24 8 8 24 8 8 24 8 8 24 8 8 24 8 8 24 8 8 24 174 184 232 8 8 24 8 8 24 8 8 24 8 8 24 8 8 24 8 8 24 21 21 54 21 21 54 8 8 24 8 8 24 8 8 24 8 8 24 8 8 24 8 8 24 8 8 24 8 8 24 8 8 24 8 8 24 8 8 24 8 8 24 8 8 24 8 8 24 8 8 24 8 8 24 8 8 24 8 8 24 8 8 24 8 8 24 8 8 24 8 8 24 8 8 24 8 8 24 8 8 24 8 8 24 8 8 24 21 21 54 21 21 54 8 8 24 8 8 24
8 8 24 8 8 24 8 8 24 8 8 24 8 8 24 8 8 24 8 8 24 8 8 24 8 8 24 8 8 24 8 8 24 8 8 24 8 8 24 8 8 24 8 8 24 8 8 24 8 8 24 8 8 24 21 21 54 21 21 54 8 8 24 8 8 24 8 8 24 8 8 24 8 8 24 8 8 24 8 8 24 8 8 24 8 8 24 8 8 24 8 8 24 8 8 24 8 8 24 8 8 24 8 8 24 8 8 24 8 8 24 8 8 24 8 8 24 8 8 24 8 8 24 8 8 24 8 8 24 8 8 24 8 8 24 8 8 24 8 8 24 21 21 54 21 21 54 8 8 24 8 8 24 8 8 24 255 255 255 8 8 24 8 8 24 8 8 24 8 8 24 8 8 24 8 8 24 8 8 24 8 8 24 8 8 24 8 8 24 8 8 24 8 8 24 8 8 24 8 8 24 8 8 24 8 8 24 8 8 24 8 8 24 8 8 24 8 8 24 8 8 24 8 8 24 8 8 24 21 21 54 21 21 54 8 8 24 8 8 24
8 8 24 8 8 24 8 8 24 8 8 24 8 8 24 8 8 24 8 8 24 8 8 24 8 8 24 8 8 24 8 8 24 8 8 24 8 8 24 8 8 24 8 8 24 8 8 24 8 8 24 21 21 54 21 21 54 8 8 24 8 8 24 8 8 24 8 8 24 8 8 24 8 8 24 174 184 232 8 8 24 8 8 24 8 8 24 8 8 24 8 8 24 8 8 24 8 8 24 8 8 24 8 8 24 8 8 24 8 8 24 8 8 24 8 8 24 8 8 24 8 8 24 8 8 24 8 8 24 8 8 24 8 8 24 8 8 24 21 21 54 21 21 54 8 8 24 8 8 24 8 8 24 8 8 24 8 8 24 8 8 24 8 8 24 8 8 24 8 8 24 8 8 24 8 8 24 8 8 24 8 8 24 8 8 24 8 8 24 8 8 24 8 8 24 8 8 24 8 8 24 8 8 24 8 8 24 8 8 24 8 8 24 8 8 24 8 8 24 8 8 24 8 8 24 21 21 54 21 21 54 8 8 24 8 8 24 8 8 24
8 8 24 8 8 24 8 8 24 8 8 24 8 8 24 8 8 24 8 8 24 8 8 24 8 8 24 8 8 24 8 8 24 8 8 24 8 8 24 8 8 24 8 8 24 8 8 24 21 21 54 174 184 232 8 8 24 8 8 24 8 8 24 8 8 24 8 8 24 8 8 24 8 8 24 8 8 24 8 8 24 8 8 24 8 8 24 8 8 24 8 8 24 8 8 24 8 8 24 8 8 24 8 8 24 8 8 24 8 8 24 8 8 24 8 8 24 8 8 24 8 8 24 8 8 24 8 8 24 8 8 24 8 8 24 21 21 54 21 21 54 8 8 24 8 8 24 8 8 24 8 8 24 8 8 24 8 8 24 8 8 24 8 8 24 8 8 24 8 8 24 8 8 24 8 8 24 8 8 24 8 8 24 8 8 24 8 8 24 8 8 24 8 8 24 8 8 24 8 8 24 8 8 24 8 8 24 8 8 24 8 8 24 8 8 24 8 8 24 8 8 24 21 21 54 21 21 54 8 8 24 8 8 24 8 8 24 8 8 24
8 8 24 8 8 24 8 8 24 8 8 24 8 8 24 8 8 24 8 8 24 8 8 24 8 8 24 8 8 24 8 8 24 8 8 24 8 8 24 8 8 24 8 8 24 21 21 54 21 21 54 8 8 24 8 8 24 8 8 24 8 8 24 8 8 24 8 8 24 8 8 24 8 8 24 8 8 24 8 8 24 174 184 232 8 8 24 8 8 24 8 8 24 8 8 24 8 8 24 8 8 24 8 8 24 8 8 24 8 8 24 8 8 24 8 8 24 8 8 24 8 8 24 8 8 24 8 8 24 8 8 24 21 21 54 21 21 54 8 8 24 8 8 24 8 8 24 8 8 24 8 8 24 8 8 24 8 8 24 8 8 24 8 8 24 8 8 24 8 8 24 8 8 24 8 8 24 8 8 24 8 8 24 8 8 24 8 8 24 8 8 24 8 8 24 8 8 24 8 8 24 8 8 24 8 8 24 8 8 24 8 8 24 8 8 24 8 8 24 21 21 54 21 21 54 8 8 24 8 8 24 8 8 24 8 8 24 8 8 24
8 8 24 8 8 24 8 8 24 8 8 24 8 8 24 8 8 24 8 8 24 8 8 24 8 8 24 8 8 24 8 8 24 8 8 24 8 8 24 8 8 24 8 8 24 21 21 54 21 21 54 8 8 24 8 8 24 8 8 24 8 8 24 8 8 24 8 8 24 8 8 24 8 8 24 8 8 24 8 8 24 8 8 24 8 8 24 8 8 24 8 8 24 8 8 24 8 8 24 8 8 24 8 8 24 8 8 24 8 8 24 8 8 24 8 8 24 8 8 24 8 8 24 8 8 24 8 8 24 8 8 24 21 21 54 21 21 54 8 8 24 8 8 24 8 8 24 8 8 24 8 8 24 8 8 24 8 8 24 8 8 24 8 8 24 8 8 24 8 8 24 8 8 24 8 8 24 8 8 24 8 8 24 8 8 24 8 8 24 8 8 24 8 8 24 8 8 24 8 8 24 8 8 24 174 184 232 8 8 24 8 8 24 8 8 24 8 8 24 21 21 54 21 21 54 8 8 24 8 8 24 8 8 24 8 8 24 8 8 24
8 8 24 8 8 24 8 8 24 8 8 24 8 8 24 8 8 24 8 8 24 8 8 24 8 8 24 8 8 24 8 8 24 8 8 24 8 8 24 8 8 24 21 21 54 21 21 54 8 8 24 8 8 24 8 8 24 8 8 24 8 8 24 8 8 24 8 8 24 8 8 24 8 8 24 8 8 24 8 8 24 8 8 24 8 8 24 8 8 24 8 8 24 8 8 24 8 8 24 8 8 24 174 184 232 8 8 24 8 8 24 8 8 24 8 8 24 8 8 24 8 8 24 8 8 24 8 8 24 21 21 54 21 21 54 8 8 24 8 8 24 8 8 24 8 8 24 8 8 24 8 8 24 8 8 24 8 8 24 8 8 24 8 8 24 8 8 24 8 8 24 8 8 24 8 8 24 8 8 24 8 8 24 8 8 24 8 8 24 8 8 24 8 8 24 8 8 24 8 8 24 8 8 24 8 8 24 8 8 24 8 8 24 8 8 24 21 21 54 21 21 54 8 8 24 8 8 24 8 8 24 8 8 24 8 8 24 8 8 24
8 8 24 8 8 24 8 8 24 8 8 24 8 8 24 8 8 24 8 8 24 8 8 24 8 8 24 8 8 24 8 8 24 8 8 24 8 8 24 21 21 54 21 21 54 8 8 24 8 8 24 8 8 24 8 8 24 8 8 24 8 8 24 8 8 24 8 8 24 8 8 24 8 8 24 8 8 24 8 8 24 8 8 24 8 8 24 8 8 24 8 8 24 8 8 24 8 8 24 8 8 24 8 8 24 8 8 24 8 8 24 8 8 24 8 8 24 8 8 24 8 8 24 8 8 24 21 21 54 21 21 54 8 8 24 8 8 24 8 8 24 8 8 24 8 8 24 8 8 24 8 8 24 8 8 24 8 8 24 8 8 24 8 8 24 174 184 232 8 8 24 8 8 24 8 8 24 8 8 24 8 8 24 8 8 24 8 8 24 8 8 24 8 8 24 8 8 24 8 8 24 8 8 24 8 8 24 8 8 24 8 8 24 21 21 54 21 21 54 8 8 24 8 8 24 8 8 24 8 8 24 8 8 24 8 8 24 8 8 24
8 8 24 8 8 24 8 8 24 8 8 24 8 8 24 8 8 24 8 8 24 8 8 24 8 8 24 8 8 24 8 8 24 8 8 24 8 8 24 21 21 54 21 21 54 8 8 24 8 8 24 8 8 24 8 8 24 8 8 24 8 8 24 8 8 24 8 8 24 8 8 24 8 8 24 8 8 24 8 8 24 8 8 24 8 8 24 8 8 24 8 8 24 8 8 24 8 8 24 8 8 24 8 8 24 8 8 24 8 8 24 8 8 24 8 8 24 8 8 24 8 8 24 8 8 24 21 21 54 21 21 54 8 8 24 8 8 24 8 8 24 8 8 24 8 8 24 8 8 24 8 8 24 8 8 24 8 8 24 8 8 24 8 8 24 8 8 24 8 8 24 8 8 24 8 8 24 8 8 24 8 8 24 8 8 24 8 8 24 8 8 24 8 8 24 8 8 24 8 8 24 8 8 24 8 8 24 8 8 24 8 8 24 21 21 54 174 184 232 8 8 24 8 8 24 8 8 24 8 8 24 8 8 24 8 8 24 8 8 24
8 8 24 8 8 24 8 8 24 8 8 24 8 8 24 8 8 24 8 8 24 174 184 232 8 8 24 8 8 24 8 8 24 8 8 24 21 21 54 21 21 54 8 8 24 8 8 24 8 8 24 8 8 24 8 8 24 8 8 24 8 8 24 8 8 24 8 8 24 8 8 24 8 8 24 8 8 24 8 8 24 8 8 24 8 8 24 8 8 24 8 8 24 8 8 24 8 8 24 8 8 24 8 8 24 8 8 24 8 8 24 8 8 24 8 8 24 8 8 24 8 8 24 21 21 54 21 21 54 8 8 24 8 8 24 8 8 24 8 8 24 8 8 24 8 8 24 8 8 24 8 8 24 8 8 24 8 8 24 8 8 24 8 8 24 8 8 24 8 8 24 8 8 24 8 8 24 8 8 24 8 8 24 8 8 24 8 8 24 8 8 24 8 8 24 8 8 24 8 8 24 8 8 24 8 8 24 8 8 24 21 21 54 21 21 54 8 8 24 8 8 24 8 8 24 8 8 24 8 8 24 8 8 24 8 8 24 8 8 24
8 8 24 8 8 24 8 8 24 8 8 24 8 8 24 8 8 24 8 8 24 8 8 24 8 8 24 8 8 24 8 8 24 21 21 54 21 21 54 174 184 232 8 8 24 8 8 24 8 8 24 8 8 24 8 8 24 8 8 24 8 8 24 8 8 24 8 8 24 8 8 24 8 8 24 8 8 24 8 8 24 8 8 24 8 8 24 8 8 24 8 8 24 8 8 24 8 8 24 8 8 24 8 8 24 8 8 24 8 8 24 8 8 24 8 8 24 8 8 24 21 21 54 21 21 54 8 8 24 8 8 24 8 8 24 8 8 24 8 8 24 8 8 24 8 8 24 255 255 255 8 8 24 8 8 24 8 8 24 8 8 24 8 8 24 8 8 24 8 8 24 8 8 24 8 8 24 8 8 24 8 8 24 8 8 24 8 8 24 8 8 24 8 8 24 8 8 24 8 8 24 8 8 24 8 8 24 21 21 54 21 21 54 8 8 24 8 8 24 8 8 24 8 8 24 8 8 24 8 8 24 8 8 24 8 8 24 8 8 24
8 8 24 8 8 24 8 8 24 8 8 24 8 8 24 8 8 24 8 8 24 8 8 24 8 8 24 8 8 24 8 8 24 21 21 54 21 21 54 8 8 24 8 8 24 8 8 24 8 8 24 8 8 24 8 8 24 8 8 24 8 8 24 8 8 24 8 8 24 8 8 24 8 8 24 8 8 24 8 8 24 8 8 24 8 8 24 8 8 24 8 8 24 8 8 24 8 8 24 8 8 24 8 8 24 8 8 24 8 8 24 8 8 24 8 8 24 8 8 24 21 21 54 21 21 54 8 8 24 8 8 24 8 8 24 8 8 24 8 8 24 8 8 24 8 8 24 8 8 24 8 8 24 8 8 24 8 8 24 8 8 24 8 8 24 8 8 24 8 8 24 8 8 24 8 8 24 8 8 24 8 8 24 8 8 24 8 8 24 174 184 232 8 8 24 8 8 24 8 8 24 8 8 24 8 8 24 21 21 54 21 21 54 8 8 24 8 8 24 8 8 24 8 8 24 8 8 24 8 8 24 8 8 24 8 8 24 8 8 24
8 8 24 8 8 24 8 8 24 8 8 24 8 8 24 8 8 24 8 8 24 8 8 24 8 8 24 8 8 24 21 21 54 21 21 54 8 8 24 8 8 24 8 8 24 8 8 24 8 8 24 8 8 24 8 8 24 8 8 24 8 8 24 8 8 24 8 8 24 8 8 24 8 8 24 8 8 24 174 184 232 8 8 24 8 8 24 8 8 24 8 8 24 8 8 24 8 8 24 8 8 24 8 8 24 8 8 24 8 8 24 8 8 24 8 8 24 21 21 54 21 21 54 8 8 24 8 8 24 8 8 24 8 8 24 8 8 24 8 8 24 8 8 24 8 8 24 8 8 24 8 8 24 8 8 24 8 8 24 8 8 24 8 8 24 8 8 24 8 8 24 8 8 24 8 8 24 8 8 24 8 8 24 8 8 24 8 8 24 8 8 24 8 8 24 8 8 24 8 8 24 8 8 24 21 21 54 21 21 54 8 8 24 8 8 24 8 8 24 8 8 24 8 8 24 8 8 24 8 8 24 8 8 24 8 8 24 8 8 24
8 8 24 8 8 24 8 8 24 8 8 24 8 8 24 8 8 24 8 8 24 8 8 24 8 8 24 21 21 54 21 21 54 8 8 24 8 8 24 8 8 24 8 8 24 8 8 24 8 8 24 8 8 24 8 8 24 8 8 24 8 8 24 8 8 24 8 8 24 8 8 24 8 8 24 8 8 24 8 8 24 8 8 24 8 8 24 8 8 24 8 8 24 8 8 24 8 8 24 8 8 24 8 8 24 8 8 24 8 8 24 8 8 24 21 21 54 21 21 54 8 8 24 8 8 24 8 8 24 8 8 24 8 8 24 8 8 24 8 8 24 8 8 24 8 8 24 8 8 24 8 8 24 8 8 24 8 8 24 8 8 24 8 8 24 8 8 24 8 8 24 8 8 24 255 255 255 8 8 24 8 8 24 8 8 24 8 8 24 8 8 24 8 8 24 8 8 24 8 8 24 21 21 54 21 21 54 8 8 24 8 8 24 8 8 24 8 8 24 8 8 24 8 8 24 8 8 24 8 8 24 8 8 24 8 8 24 8 8 24
8 8 24 8 8 24 8 8 24 8 8 24 8 8 24 8 8 24 8 8 24 8 8 24 21 21 54 21 21 54 8 8 24 8 8 24 8 8 24 8 8 24 8 8 24 8 8 24 8 8 24 8 8 24 8 8 24 8 8 24 8 8 24 8 8 24 8 8 24 8 8 24 8 8 24 8 8 24 8 8 24 8 8 24 8 8 24 8 8 24 8 8 24 8 8 24 8 8 24 8 8 24 8 8 24 8 8 24 8 8 24 21 21 54 21 21 54 8 8 24 8 8 24 8 8 24 8 8 24 8 8 24 8 8 24 8 8 24 8 8 24 8 8 24 8 8 24 8 8 24 8 8 24 8 8 24 8 8 24 8 8 24 8 8 24 8 8 24 8 8 24 8 8 24 8 8 24 8 8 24 8 8 24 8 8 24 8 8 24 8 8 24 8 8 24 8 8 24 21 21 54 21 21 54 8 8 24 8 8 24 8 8 24 8 8 24 8 8 24 8 8 24 8 8 24 8 8 24 8 8 24 8 8 24 8 8 24 8 8 24
8 8 24 8 8 24 8 8 24 8 8 24 8 8 24 8 8 24 8 8 24 8 8 24 21 21 54 21 21 54 8 8 24 8 8 24 8 8 24 8 8 24 8 8 24 8 8 24 8 8 24 8 8 24 8 8 24 8 8 24 8 8 24 8 8 24 8 8 24 8 8 24 8 8 24 8 8 24 8 8 24 8 8 24 8 8 24 8 8 24 8 8 24 8 8 24 8 8 24 8 8 24 8 8 24 8 8 24 8 8 24 21 21 54 21 21 54 8 8 24 8 8 24 8 8 24 8 8 24 8 8 24 8 8 24 8 8 24 8 8 24 8 8 24 8 8 24 8 8 24 8 8 24 8 8 24 8 8 24 8 8 24 8 8 24 8 8 24 8 8 24 8 8 24 8 8 24 8 8 24 8 8 24 8 8 24 8 8 24 8 8 24 8 8 24 8 8 24 21 21 54 21 21 54 8 8 24 8 8 24 8 8 24 8 8 24 8 8 24 8 8 24 8 8 24 8 8 24 174 184 232 8 8 24 8 8 24 8 8 24
8 8 24 8 8 24 8 8 24 8 8 24 8 8 24 8 8 24 8 8 24 21 21 54 21 21 54 8 8 24 8 8 24 8 8 24 8 8 24 8 8 24 8 8 24 8 8 24 8 8 24 8 8 24 8 8 24 174 184 232 8 8 24 8 8 24 8 8 24 8 8 24 8 8 24 8 8 24 8 8 24 8 8 24 8 8 24 8 8 24 8 8 24 8 8 24 8 8 24 8 8 24 8 8 24 8 8 24 21 21 54 21 21 54 8 8 24 8 8 24 8 8 24 8 8 24 8 8 24 8 8 24 8 8 24 8 8 24 8 8 24 8 8 24 8 8 24 8 8 24 8 8 24 8 8 24 8 8 24 8 8 24 8 8 24 8 8 24 8 8 24 8 8 24 8 8 24 8 8 24 8 8 24 8 8 24 8 8 24 8 8 24 8 8 24 21 21 54 21 21 54 8 8 24 8 8 24 8 8 24 8 8 24 8 8 24 8 8 24 8 8 24 8 8 24 8 8 24 8 8 24 8 8 24 8 8 24 8 8 24
8 8 24 8 8 24 8 8 24 8 8 24 8 8 24 8 8 24 21 21 54 21 21 54 8 8 24 8 8 24 8 8 24 8 8 24 8 8 24 8 8 24 8 8 24 8 8 24 8 8 24 8 8 24 8 8 24 8 8 24 8 8 24 8 8 24 8 8 24 8 8 24 8 8 24 8 8 24 8 8 24 8 8 24 8 8 24 8 8 24 174 184 232 8 8 24 8 8 24 8 8 24 8 8 24 21 21 54 21 21 54 8 8 24 8 8 24 8 8 24 8 8 24 8 8 24 8 8 24 8 8 24 8 8 24 8 8 24 8 8 24 8 8 24 8 8 24 8 8 24 8 8 24 8 8 24 8 8 24 8 8 24 8 8 24 8 8 24 8 8 24 8 8 24 8 8 24 8 8 24 8 8 24 8 8 24 8 8 24 8 8 24 21 21 54 21 21 54 8 8 24 8 8 24 8 8 24 8 8 24 8 8 24 8 8 24 8 8 24 8 8 24 8 8 24 8 8 24 8 8 24 8 8 24 8 8 24 8 8 24
8 8 24 8 8 24 8 8 24 8 8 24 8 8 24 8 8 24 21 21 54 21 21 54 8 8 24 8 8 24 8 8 24 8 8 24 8 8 24 8 8 24 8 8 24 8 8 24 8 8 24 8 8 24 8 8 24 8 8 24 8 8 24 8 8 24 8 8 24 8 8 24 8 8 24 8 8 24 8 8 24 8 8 24 8 8 24 8 8 24 8 8 24 8 8 24 8 8 24 8 8 24 8 8 24 174 184 232 21 21 54 8 8 24 8 8 24 8 8 24 8 8 24 8 8 24 8 8 24 8 8 24 8 8 24 8 8 24 8 8 24 8 8 24 8 8 24 8 8 24 8 8 24 8 8 24 8 8 24 8 8 24 8 8 24 8 8 24 8 8 24 8 8 24 8 8 24 8 8 24 8 8 24 8 8 24 8 8 24 8 8 24 21 21 54 21 21 54 8 8 24 8 8 24 8 8 24 8 8 24 8 8 24 8 8 24 8 8 24 8 8 24 8 8 24 8 8 24 8 8 24 8 8 24 8 8 24 8 8 24
8 8 24 8 8 24 8 8 24 8 8 24 8 8 24 21 21 54 21 21 54 8 8 24 8 8 24 174 184 232 8 8 24 8 8 24 8 8 24 8 8 24 8 8 24 8 8 24 8 8 24 8 8 24 8 8 24 8 8 24 8 8 24 8 8 24 8 8 24 8 8 24 8 8 24 8 8 24 8 8 24 8 8 24 8 8 24 8 8 24 8 8 24 8 8 24 8 8 24 8 8 24 21 21 54 21 21 54 8 8 24 8 8 24 8 8 24 8 8 24 8 8 24 8 8 24 8 8 24 8 8 24 8 8 24 8 8 24 8 8 24 8 8 24 8 8 24 8 8 24 8 8 24 8 8 24 8 8 24 8 8 24 8 8 24 8 8 24 8 8 24 8 8 24 8 8 24 8 8 24 8 8 24 8 8 24 8 8 24 21 21 54 21 21 54 8 8 24 8 8 24 8 8 24 8 8 24 8 8 24 8 8 24 8 8 24 8 8 24 8 8 24 8 8 24 8 8 24 8 8 24 8 8 24 8 8 24 8 8 24
8 8 24 8 8 24 8 8 24 8 8 24 21 21 54 21 21 54 8 8 24 8 8 24 8 8 24 8 8 24 174 184 232 8 8 24 8 8 24 8 8 24 8 8 24 8 8 24 8 8 24 8 8 24 8 8 24 8 8 24 8 8 24 8 8 24 8 8 24 8 8 24 8 8 24 8 8 24 8 8 24 8 8 24 8 8 24 8 8 24 8 8 24 8 8 24 8 8 24 21 21 54 21 21 54 8 8 24 8 8 24 8 8 24 8 8 24 8 8 24 8 8 24 8 8 24 8 8 24 8 8 24 8 8 24 8 8 24 8 8 24 8 8 24 8 8 24 8 8 24 8 8 24 8 8 24 8 8 24 8 8 24 8 8 24 8 8 24 8 8 24 8 8 24 8 8 24 8 8 24 8 8 24 8 8 24 21 21 54 21 21 54 8 8 24 8 8 24 8 8 24 8 8 24 8 8 24 8 8 24 8 8 24 8 8 24 8 8 24 8 8 24 8 8 24 8 8 24 8 8 24 8 8 24 8 8 24 8 8 24
8 8 24 8 8 24 8 8 24 8 8 24 21 21 54 21 21 54 8 8 24 8 8 24 8 8 24 8 8 24 8 8 24 8 8 24 8 8 24 8 8 24 8 8 24 8 8 24 8 8 24 8 8 24 8 8 24 8 8 24 8 8 24 8 8 24 8 8 24 8 8 24 8 8 24 8 8 24 8 8 24 8 8 24 8 8 24 8 8 24 8 8 24 8 8 24 8 8 24 21 21 54 21 21 54 8 8 24 8 8 24 8 8 24 8 8 24 8 8 24 8 8 24 174 184 232 8 8 24 8 8 24 8 8 24 8 8 24 8 8 24 8 8 24 8 8 24 8 8 24 8 8 24 8 8 24 8 8 24 8 8 24 8 8 24 8 8 24 8 8 24 8 8 24 8 8 24 8 8 24 8 8 24 8 8 24 21 21 54 21 21 54 8 8 24 8 8 24 8 8 24 8 8 24 8 8 24 8 8 24 8 8 24 8 8 24 8 8 24 8 8 24 8 8 24 8 8 24 8 8 24 8 8 24 8 8 24 8 8 24
8 8 24 8 8 24 8 8 24 21 21 54 21 21 54 8 8 24 8 8 24 8 8 24 8 8 24 8 8 24 8 8 24 8 8 24 8 8 24 8 8 24 8 8 24 8 8 24 8 8 24 8 8 24 8 8 24 8 8 24 174 184 232 8 8 24 8 8 24 8 8 24 8 8 24 8 8 24 8 8 24 8 8 24 8 8 24 8 8 24 8 8 24 8 8 24 21 21 54 21 21 54 8 8 24 8 8 24 8 8 24 8 8 24 8 8 24 8 8 24 8 8 24 8 8 24 8 8 24 8 8 24 8 8 24 8 8 24 8 8 24 8 8 24 8 8 24 8 8 24 8 8 24 8 8 24 8 8 24 8 8 24 8 8 24 8 8 24 8 8 24 8 8 24 8 8 24 8 8 24 8 8 24 21 21 54 21 21 54 8 8 24 8 8 24 8 8 24 8 8 24 8 8 24 255 255 255 8 8 24 8 8 24 8 8 24 8 8 24 8 8 24 8 8 24 8 8 24 8 8 24 8 8 24 8 8 24 8 8 24
8 8 24 8 8 24 21 21 54 21 21 54 8 8 24 8 8 24 8 8 24 8 8 24 8 8 24 8 8 24 8 8 24 8 8 24 8 8 24 8 8 24 8 8 24 8 8 24 8 8 24 8 8 24 8 8 24 8 8 24 8 8 24 8 8 24 8 8 24 8 8 24 8 8 24 8 8 24 8 8 24 8 8 24 8 8 24 8 8 24 8 8 24 21 21 54 21 21 54 8 8 24 8 8 24 8 8 24 8 8 24 8 8 24 8 8 24 8 8 24 8 8 24 8 8 24 8 8 24 8 8 24 8 8 24 8 8 24 8 8 24 8 8 24 8 8 24 8 8 24 8 8 24 8 8 24 8 8 24 8 8 24 8 8 24 8 8 24 8 8 24 8 8 24 8 8 24 8 8 24 21 21 54 21 21 54 8 8 24 8 8 24 8 8 24 8 8 24 174 184 232 8 8 24 8 8 24 8 8 24 8 8 24 8 8 24 8 8 24 8 8 24 8 8 24 8 8 24 8 8 24 8 8 24 8 8 24 8 8 24
8 8 24 21 21 54 21 21 54 8 8 24 8 8 24 8 8 24 8 8 24 8 8 24 8 8 24 8 8 24 8 8 24 8 8 24 8 8 24 8 8 24 8 8 24 8 8 24 8 8 24 8 8 24 8 8 24 8 8 24 8 8 24 8 8 24 8 8 24 8 8 24 8 8 24 8 8 24 8 8 24 8 8 24 8 8 24 8 8 24 21 21 54 21 21 54 8 8 24 8 8 24 8 8 24 8 8 24 8 8 24 8 8 24 8 8 24 8 8 24 8 8 24 8 8 24 8 8 24 8 8 24 8 8 24 8 8 24 8 8 24 8 8 24 8 8 24 8 8 24 8 8 24 8 8 24 8 8 24 8 8 24 8 8 24 8 8 24 8 8 24 8 8 24 8 8 24 21 21 54 21 21 54 8 8 24 8 8 24 8 8 24 8 8 24 8 8 24 8 8 24 8 8 24 8 8 24 8 8 24 8 8 24 8 8 24 8 8 24 8 8 24 8 8 24 8 8 24 8 8 24 8 8 24 8 8 24 8 8 24
8 8 24 21 21 54 21 21 54 8 8 24 8 8 24 8 8 24 8 8 24 8 8 24 8 8 24 8 8 24 8 8 24 8 8 24 8 8 24 8 8 24 8 8 24 8 8 24 8 8 24 8 8 24 8 8 24 8 8 24 8 8 24 8 8 24 8 8 24 8 8 24 8 8 24 8 8 24 8 8 24 8 8 24 8 8 24 8 8 24 21 21 54 21 21 54 8 8 24 8 8 24 8 8 24 8 8 24 8 8 24 8 8 24 8 8 24 8 8 24 8 8 24 8 8 24 8 8 24 8 8 24 8 8 24 8 8 24 8 8 24 8 8 24 8 8 24 8 8 24 8 8 24 8 8 24 8 8 24 8 8 24 8 8 24 8 8 24 8 8 24 8 8 24 8 8 24 21 21 54 21 21 54 8 8 24 8 8 24 8 8 24 8 8 24 8 8 24 8 8 24 8 8 24 8 8 24 174 184 232 8 8 24 8 8 24 8 8 24 8 8 24 8 8 24 8 8 24 8 8 24 8 8 24 8 8 24 8 8 24
21 21 54 21 21 54 8 8 24 8 8 24 8 8 24 8 8 24 8 8 24 8 8 24 8 8 24 8 8 24 8 8 24 8 8 24 8 8 24 8 8 24 8 8 24 8 8 24 8 8 24 8 8 24 8 8 24 8 8 24 8 8 24 8 8 24 8 8 24 8 8 24 8 8 24 8 8 24 8 8 24 8 8 24 8 8 24 21 21 54 21 21 54 8 8 24 8 8 24 8 8 24 8 8 24 8 8 24 8 8 24 8 8 24 8 8 24 8 8 24 8 8 24 8 8 24 8 8 24 8 8 24 8 8 24 8 8 24 8 8 24 8 8 24 8 8 24 8 8 24 8 8 24 8 8 24 8 8 24 8 8 24 8 8 24 8 8 24 8 8 24 8 8 24 21 21 54 21 21 54 8 8 24 8 8 24 8 8 24 8 8 24 8 8 24 8 8 24 8 8 24 8 8 24 8 8 24 8 8 24 8 8 24 8 8 24 8 8 24 174 184 232 8 8 24 8 8 24 8 8 24 8 8 24 8 8 24 8 8 24
21 21 54 8 8 24 8 8 24 8 8 24 8 8 24 8 8 24 8 8 24 8 8 24 8 8 24 8 8 24 8 8 24 8 8 24 8 8 24 8 8 24 8 8 24 8 8 24 8 8 24 8 8 24 8 8 24 8 8 24 255 255 255 8 8 24 8 8 24 8 8 24 8 8 24 8 8 24 8 8 24 8 8 24 21 21 54 21 21 54 8 8 24 8 8 24 8 8 24 8 8 24 8 8 24 8 8 24 8 8 24 8 8 24 8 8 24 8 8 24 8 8 24 8 8 24 8 8 24 8 8 24 8 8 24 8 8 24 8 8 24 8 8 24 8 8 24 8 8 24 8 8 24 8 8 24 8 8 24 8 8 24 8 8 24 8 8 24 8 8 24 21 21 54 21 21 54 8 8 24 8 8 24 8 8 24 8 8 24 8 8 24 8 8 24 8 8 24 8 8 24 8 8 24 8 8 24 8 8 24 8 8 24 8 8 24 8 8 24 8 8 24 8 8 24 8 8 24 8 8 24 8 8 24 8 8 24 8 8 24
21 21 54 8 8 24 8 8 24 8 8 24 8 8 24 8 8 24 8 8 24 8 8 24 8 8 24 8 8 24 8 8 24 8 8 24 8 8 24 8 8 24 8 8 24 8 8 24 8 8 24 8 8 24 8 8 24 8 8 24 8 8 24 8 8 24 8 8 24 8 8 24 8 8 24 8 8 24 8 8 24 8 8 24 21 21 54 21 21 54 8 8 24 8 8 24 8 8 24 8 8 24 8 8 24 8 8 24 8 8 24 8 8 24 8 8 24 8 8 24 8 8 24 8 8 24 8 8 24 8 8 24 8 8 24 8 8 24 8 8 24 8 8 24 8 8 24 8 8 24 8 8 24 8 8 24 8 8 24 255 255 255 8 8 24 8 8 24 8 8 24 21 21 54 21 21 54 8 8 24 8 8 24 8 8 24 174 184 232 8 8 24 8 8 24 8 8 24 8 8 24 8 8 24 8 8 24 8 8 24 8 8 24 8 8 24 8 8 24 8 8 24 8 8 24 8 8 24 8 8 24 8 8 24 8 8 24 8 8 24
8 8 24 8 8 24 8 8 24 8 8 24 8 8 24 8 8 24 8 8 24 8 8 24 8 8 24 8 8 24 8 8 24 8 8 24 8 8 24 8 8 24 8 8 24 8 8 24 8 8 24 8 8 24 8 8 24 8 8 24 8 8 24 8 8 24 8 8 24 8 8 24 8 8 24 8 8 24 8 8 24 21 21 54 21 21 54 8 8 24 8 8 24 8 8 24 8 8 24 8 8 24 8 8 24 8 8 24 8 8 24 8 8 24 8 8 24 8 8 24 8 8 24 8 8 24 8 8 24 8 8 24 8 8 24 174 184 232 8 8 24 8 8 24 8 8 24 8 8 24 8 8 24 8 8 24 8 8 24 8 8 24 8 8 24 8 8 24 21 21 54 21 21 54 8 8 24 8 8 24 8 8 24 8 8 24 8 8 24 8 8 24 8 8 24 8 8 24 8 8 24 8 8 24 8 8 24 8 8 24 8 8 24 8 8 24 8 8 24 8 8 24 8 8 24 8 8 24 8 8 24 8 8 24 8 8 24 8 8 24
8 8 24 8 8 24 8 8 24 8 8 24 8 8 24 8 8 24 8 8 24 8 8 24 8 8 24 8 8 24 8 8 24 8 8 24 8 8 24 8 8 24 8 8 24 8 8 24 8 8 24 8 8 24 8 8 24 8 8 24 8 8 24 8 8 24 8 8 24 8 8 24 8 8 24 8 8 24 21 21 54 21 21 54 8 8 24 8 8 24 8 8 24 8 8 24 8 8 24 8 8 24 8 8 24 8 8 24 8 8 24 8 8 24 8 8 24 8 8 24 8 8 24 8 8 24 8 8 24 8 8 24 8 8 24 8 8 24 8 8 24 8 8 24 8 8 24 8 8 24 8 8 24 8 8 24 8 8 24 8 8 24 8 8 24 21 21 54 21 21 54 8 8 24 8 8 24 8 8 24 8 8 24 8 8 24 8 8 24 8 8 24 8 8 24 8 8 24 8 8 24 8 8 24 8 8 24 8 8 24 8 8 24 174 184 232 8 8 24 8 8 24 8 8 24 8 8 24 8 8 24 8 8 24 8 8 24 8 8 24
8 8 24 8 8 24 8 8 24 8 8 24 8 8 24 174 184 232 8 8 24 8 8 24 8 8 24 8 8 24 8 8 24 8 8 24 8 8 24 8 8 24 8 8 24 8 8 24 8 8 24 8 8 24 8 8 24 8 8 24 8 8 24 8 8 24 8 8 24 8 8 24 8 8 24 8 8 24 21 21 54 21 21 54 8 8 24 8 8 24 8 8 24 8 8 24 8 8 24 8 8 24 8 8 24 8 8 24 8 8 24 8 8 24 8 8 24 8 8 24 8 8 24 8 8 24 8 8 24 8 8 24 8 8 24 8 8 24 8 8 24 8 8 24 8 8 24 8 8 24 8 8 24 8 8 24 8 8 24 8 8 24 8 8 24 21 21 54 21 21 54 8 8 24 8 8 24 8 8 24 8 8 24 8 8 24 8 8 24 8 8 24 8 8 24 8 8 24 8 8 24 8 8 24 8 8 24 8 8 24 8 8 24 8 8 24 8 8 24 8 8 24 8 8 24 8 8 24 8 8 24 8 8 24 8 8 24 8 8 24
8 8 24 8 8 24 8 8 24 8 8 24 8 8 24 8 8 24 8 8 24 8 8 24 8 8 24 8 8 24 8 8 24 8 8 24 8 8 24 8 8 24 8 8 24 8 8 24 8 8 24 8 8 24 8 8 24 8 8 24 8 8 24 8 8 24 8 8 24 8 8 24 8 8 24 21 21 54 21 21 54 8 8 24 8 8 24 8 8 24 8 8 24 8 8 24 8 8 24 8 8 24 8 8 24 8 8 24 8 8 24 8 8 24 8 8 24 8 8 24 8 8 24 8 8 24 8 8 24 8 8 24 8 8 24 8 8 24 8 8 24 8 8 24 8 8 24 8 8 24 8 8 24 8 8 24 8 8 24 8 8 24 21 21 54 21 21 54 8 8 24 174 184 232 8 8 24 8 8 24 8 8 24 8 8 24 8 8 24 8 8 24 8 8 24 8 8 24 8 8 24 8 8 24 8 8 24 8 8 24 8 8 24 8 8 24 8 8 24 8 8 24 8 8 24 8 8 24 8 8 24 8 8 24 8 8 24 8 8 24
8 8 24 8 8 24 8 8 24 8 8 24 8 8 24 8 8 24 8 8 24 8 8 24 8 8 24 8 8 24 8 8 24 8 8 24 8 8 24 8 8 24 8 8 24 8 8 24 8 8 24 8 8 24 8 8 24 8 8 24 8 8 24 8 8 24 8 8 24 8 8 24 21 21 54 21 21 54 8 8 24 8 8 24 8 8 24 8 8 24 8 8 24 8 8 24 8 8 24 8 8 24 8 8 24 8 8 24 8 8 24 8 8 24 8 8 24 8 8 24 8 8 24 8 8 24 8 8 24 8 8 24 8 8 24 8 8 24 8 8 24 8 8 24 8 8 24 8 8 24 8 8 24 8 8 24 8 8 24 21 21 54 21 21 54 8 8 24 8 8 24 8 8 24 8 8 24 8 8 24 8 8 24 8 8 24 8 8 24 8 8 24 8 8 24 8 8 24 8 8 24 8 8 24 8 8 24 8 8 24 8 8 24 8 8 24 8 8 24 8 8 24 8 8 24 8 8 24 8 8 24 8 8 24 8 8 24 8 8 24
8 8 24 8 8 24 8 8 24 8 8 24 8 8 24 8 8 24 8 8 24 8 8 24 8 8 24 8 8 24 8 8 24 8 8 24 8 8 24 8 8 24 8 8 24 8 8 24 8 8 24 8 8 24 8 8 24 8 8 24 8 8 24 8 8 24 8 8 24 21 21 54 21 21 54 8 8 24 8 8 24 8 8 24 8 8 24 8 8 24 8 8 24 8 8 24 8 8 24 8 8 24 8 8 24 8 8 24 8 8 24 8 8 24 8 8 24 174 184 232 8 8 24 8 8 24 8 8 24 8 8 24 8 8 24 8 8 24 8 8 24 8 8 24 8 8 24 8 8 24 8 8 24 8 8 24 21 21 54 21 21 54 8 8 24 8 8 24 8 8 24 8 8 24 8 8 24 8 8 24 8 8 24 8 8 24 8 8 24 8 8 24 8 8 24 8 8 24 8 8 24 8 8 24 8 8 24 8 8 24 8 8 24 8 8 24 8 8 24 8 8 24 8 8 24 8 8 24 8 8 24 8 8 24 8 8 24 8 8 24
8 8 24 8 8 24 8 8 24 8 8 24 8 8 24 8 8 24 8 8 24 8 8 24 8 8 24 8 8 24 8 8 24 8 8 24 8 8 24 8 8 24 8 8 24 8 8 24 8 8 24 8 8 24 8 8 24 8 8 24 8 8 24 8 8 24 8 8 24 21 21 54 21 21 54 8 8 24 8 8 24 8 8 24 8 8 24 8 8 24 8 8 24 8 8 24 8 8 24 8 8 24 8 8 24 8 8 24 8 8 24 8 8 24 8 8 24 8 8 24 8 8 24 8 8 24 8 8 24 8 8 24 8 8 24 8 8 24 8 8 24 8 8 24 8 8 24 8 8 24 8 8 24 8 8 24 21 21 54 21 21 54 8 8 24 8 8 24 8 8 24 8 8 24 8 8 24 174 184 232 8 8 24 8 8 24 8 8 24 8 8 24 8 8 24 8 8 24 8 8 24 8 8 24 8 8 24 8 8 24 8 8 24 8 8 24 8 8 24 8 8 24 8 8 24 8 8 24 8 8 24 8 8 24 8 8 24 8 8 24
8 8 24 8 8 24 8 8 24 8 8 24 8 8 24 8 8 24 8 8 24 8 8 24 8 8 24 8 8 24 8 8 24 8 8 24 8 8 24 8 8 24 8 8 24 174 184 232 8 8 24 8 8 24 8 8 24 8 8 24 8 8 24 8 8 24 21 21 54 21 21 54 8 8 24 8 8 24 8 8 24 8 8 24 8 8 24 8 8 24 8 8 24 8 8 24 8 8 24 8 8 24 8 8 24 8 8 24 8 8 24 8 8 24 8 8 24 8 8 24 8 8 24 8 8 24 8 8 24 8 8 24 8 8 24 8 8 24 8 8 24 8 8 24 8 8 24 8 8 24 8 8 24 21 21 54 21 21 54 8 8 24 8 8 24 8 8 24 8 8 24 8 8 24 8 8 24 8 8 24 8 8 24 8 8 24 8 8 24 8 8 24 8 8 24 8 8 24 8 8 24 8 8 24 8 8 24 8 8 24 8 8 24 8 8 24 8 8 24 8 8 24 8 8 24 8 8 24 8 8 24 8 8 24 8 8 24 8 8 24
8 8 24 8 8 24 8 8 24 8 8 24 8 8 24 8 8 24 8 8 24 8 8 24 8 8 24 8 8 24 8 8 24 8 8 24 8 8 24 8 8 24 8 8 24 8 8 24 8 8 24 255 255 255 8 8 24 8 8 24 8 8 24 21 21 54 21 21 54 8 8 24 8 8 24 8 8 24 8 8 24 8 8 24 8 8 24 8 8 24 8 8 24 8 8 24 8 8 24 8 8 24 8 8 24 8 8 24 8 8 24 8 8 24 8 8 24 8 8 24 8 8 24 8 8 24 8 8 24 8 8 24 8 8 24 8 8 24 8 8 24 8 8 24 8 8 24 8 8 24 21 21 54 21 21 54 8 8 24 8 8 24 8 8 24 8 8 24 8 8 24 8 8 24 8 8 24 8 8 24 8 8 24 8 8 24 8 8 24 8 8 24 174 184 232 8 8 24 8 8 24 8 8 24 8 8 24 8 8 24 8 8 24 8 8 24 8 8 24 8 8 24 8 8 24 8 8 24 8 8 24 8 8 24 8 8 24 21 21 54
8 8 24 8 8 24 8 8 24 8 8 24 8 8 24 8 8 24 8 8 24 8 8 24 8 8 24 8 8 24 8 8 24 8 8 24 8 8 24 8 8 24 8 8 24 8 8 24 8 8 24 8 8 24 8 8 24 8 8 24 8 8 24 21 21 54 21 21 54 8 8 24 8 8 24 8 8 24 8 8 24 8 8 24 8 8 24 8 8 24 8 8 24 8 8 24 8 8 24 8 8 24 8 8 24 8 8 24 8 8 24 8 8 24 8 8 24 8 8 24 8 8 24 8 8 24 174 184 232 8 8 24 8 8 24 8 8 24 8 8 24 8 8 24 8 8 24 8 8 24 21 21 54 21 21 54 8 8 24 8 8 24 8 8 24 8 8 24 8 8 24 8 8 24 8 8 24 8 8 24 8 8 24 8 8 24 8 8 24 8 8 24 8 8 24 8 8 24 8 8 24 8 8 24 8 8 24 8 8 24 8 8 24 8 8 24 8 8 24 8 8 24 8 8 24 8 8 24 8 8 24 8 8 24 8 8 24 21 21 54
8 8 24 8 8 24 8 8 24 8 8 24 8 8 24 8 8 24 8 8 24 8 8 24 8 8 24 8 8 24 8 8 24 8 8 24 8 8 24 8 8 24 8 8 24 8 8 24 8 8 24 8 8 24 8 8 24 8 8 24 21 21 54 21 21 54 8 8 24 8 8 24 8 8 24 8 8 24 8 8 24 255 255 255 8 8 24 8 8 24 8 8 24 8 8 24 8 8 24 8 8 24 8 8 24 8 8 24 8 8 24 8 8 24 8 8 24 8 8 24 8 8 24 8 8 24 8 8 24 8 8 24 8 8 24 8 8 24 8 8 24 8 8 24 8 8 24 21 21 54 21 21 54 8 8 24 8 8 24 8 8 24 8 8 24 8 8 24 8 8 24 8 8 24 8 8 24 8 8 24 174 184 232 8 8 24 8 8 24 8 8 24 8 8 24 8 8 24 8 8 24 8 8 24 8 8 24 8 8 24 8 8 24 8 8 24 8 8 24 8 8 24 8 8 24 8 8 24 8 8 24 8 8 24 21 21 54 21 21 54
8 8 24 8 8 24 8 8 24 8 8 24 8 8 24 8 8 24 8 8 24 8 8 24 8 8 24 8 8 24 8 8 24 8 8 24 8 8 24 8 8 24 8 8 24 8 8 24 8 8 24 8 8 24 8 8 24 21 21 54 21 21 54 8 8 24 8 8 24 8 8 24 8 8 24 8 8 24 8 8 24 8 8 24 8 8 24 8 8 24 8 8 24 8 8 24 174 184 232 8 8 24 8 8 24 8 8 24 8 8 24 8 8 24 8 8 24 8 8 24 8 8 24 8 8 24 8 8 24 8 8 24 8 8 24 8 8 24 8 8 24 8 8 24 21 21 54 21 21 54 8 8 24 8 8 24 8 8 24 8 8 24 8 8 24 8 8 24 8 8 24 8 8 24 8 8 24 8 8 24 8 8 24 8 8 24 8 8 24 8 8 24 8 8 24 8 8 24 8 8 24 8 8 24 8 8 24 8 8 24 8 8 24 8 8 24 8 8 24 8 8 24 8 8 24 8 8 24 8 8 24 21 21 54 21 21 54 8 8 24
8 8 24 8 8 24 8 8 24 8 8 24 8 8 24 8 8 24 8 8 24 8 8 24 8 8 24 8 8 24 8 8 24 8 8 24 8 8 24 8 8 24 8 8 24 255 255 255 8 8 24 8 8 24 8 8 24 21 21 54 21 21 54 8 8 24 8 8 24 8 8 24 8 8 24 8 8 24 8 8 24 8 8 24 8 8 24 8 8 24 8 8 24 8 8 24 8 8 24 8 8 24 8 8 24 8 8 24 8 8 24 8 8 24 8 8 24 8 8 24 8 8 24 8 8 24 8 8 24 8 8 24 8 8 24 8 8 24 8 8 24 8 8 24 21 21 54 21 21 54 8 8 24 8 8 24 8 8 24 8 8 24 8 8 24 8 8 24 8 8 24 8 8 24 8 8 24 8 8 24 8 8 24 8 8 24 8 8 24 8 8 24 8 8 24 8 8 24 8 8 24 8 8 24 8 8 24 8 8 24 8 8 24 8 8 24 8 8 24 8 8 24 8 8 24 8 8 24 8 8 24 21 21 54 21 21 54 8 8 24
8 8 24 8 8 24 8 8 24 8 8 24 8 8 24 8 8 24 8 8 24 8 8 24 8 8 24 8 8 24 8 8 24 8 8 24 8 8 24 8 8 24 8 8 24 8 8 24 8 8 24 8 8 24 21 21 54 21 21 54 8 8 24 8 8 24 8 8 24 8 8 24 8 8 24 8 8 24 8 8 24 8 8 24 8 8 24 8 8 24 8 8 24 8 8 24 8 8 24 8 8 24 8 8 24 8 8 24 8 8 24 8 8 24 8 8 24 8 8 24 8 8 24 8 8 24 8 8 24 8 8 24 8 8 24 8 8 24 8 8 24 21 21 54 21 21 54 174 184 232 8 8 24 8 8 24 8 8 24 8 8 24 8 8 24 8 8 24 8 8 24 8 8 24 8 8 24 8 8 24 8 8 24 8 8 24 8 8 24 8 8 24 8 8 24 8 8 24 8 8 24 8 8 24 8 8 24 8 8 24 8 8 24 8 8 24 8 8 24 8 8 24 8 8 24 8 8 24 21 21 54 21 21 54 8 8 24 8 8 24
8 8 24 8 8 24 174 184 232 8 8 24 8 8 24 8 8 24 8 8 24 8 8 24 8 8 24 8 8 24 8 8 24 8 8 24 8 8 24 8 8 24 8 8 24 8 8 24 8 8 24 21 21 54 21 21 54 8 8 24 8 8 24 8 8 24 8 8 24 8 8 24 8 8 24 8 8 24 8 8 24 8 8 24 8 8 24 8 8 24 8 8 24 8 8 24 8 8 24 8 8 24 8 8 24 8 8 24 8 8 24 8 8 24 8 8 24 8 8 24 8 8 24 8 8 24 8 8 24 8 8 24 8 8 24 8 8 24 21 21 54 21 21 54 8 8 24 8 8 24 8 8 24 8 8 24 8 8 24 8 8 24 8 8 24 8 8 24 8 8 24 8 8 24 8 8 24 8 8 24 8 8 24 8 8 24 8 8 24 8 8 24 8 8 24 8 8 24 8 8 24 8 8 24 8 8 24 8 8 24 8 8 24 8 8 24 8 8 24 8 8 24 8 8 24 21 21 54 21 21 54 8 8 24 8 8 24 8 8 24
