/* Pg12用オリジナル背景素材。Learning_language リポジトリ用に作成。 */
static char * space_background_xpm[] = {
"160 120 4 1",
"." c #080818",
":" c #151536",
"*" c #AEB8E8",
"+" c #FFFFFF",
"+::......................................................:::......................................................:::...........................................",
":::......................................................:::.............................................*........:::...........................................",
"::......................................................:::................................*.....................:::............................................",
":......................................................:::......................................................:::..........................*..................",
":......................................................:::......................................................:::.............................................",
".........................................+...........*:::......................................................:::..............................................",
".....................................................:::......................................................:::...............................................",
".....................................................:::......................................................:::...............................................",
"......*.............................................:::......................................................:::.........................................+......",
"...................................................:::......................................................:::.................................................",
".............................................+....:::......................................................:::..................................................",
"............................................*.....:::......................................................:::..................................................",
".................................................:::...................................................*..:::...................................................",
"................................................:::.......................................+..............:::.*..................................................",
"................................................:::......................................................:::............................................*.......",
"...............................................:::......................................................:::.....................................................",
"..............................................:::.*....................................................:::......................................................",
".....................................*........:::......................................................:::......................................................",
".............................................:::...........*..........................................:::......................................................:",
"...................................*........:::......................................................:::......................................................::",
"...........................................:::......................................................:::...............................*......................:::",
"...........................................:::......................................................:::................................*.....................:::",
".......+..................................:::......................................................:::......................................................:::.",
".........................................:::......................................................:::......................................................:::*.",
".................+.......................:::...................................*..................:::......................................................:::..",
"........................................:::..............*.......................................:::......................................................:::...",
".............................*.........:::......................................................:::......................................................:::....",
".......................................:::.......................................*..............:::...................+..................................:::....",
"......................................:::......*...............................................:::......................................................:::.....",
".....................................:::......*..................................+............:::......................................................:::......",
"..........................+.........:::......................................................:::......................................................:::.......",
"....................................:::......................................................:::......................................................:::.......",
"..................................*:::......................................................:::......................................................:::........",
"..................................:::......................................................:::......................................................:::.........",
"..................................:::.................................................*....:::......................................................:::.........",
".......................*.........:::......................................................:::........................+.............................:::..........",
"................................:::.........................*............................:::......................................................:::...........",
"................................:::......................................................:::....*.................................................:::...........",
"...............................:::......................................................:::......................................................:::............",
"..............................:::..........*...........................................:::......................................................:::.............",
".............................:::......................................................:::........*.............................................:::..............",
".............................:::....*.................................................:::......................................................:::..............",
"............................:::.......................*+.............................:::......................................................:::...............",
"...........................:::...............................*......................:::......................................................:::................",
"...........................:::......................................................:::......................................................:::...............*",
"..........................:::......................................................:::......................................................:::.................",
".........................:::......................................................:::......................................................:::*...............+.",
".................*.......:::......................................................:::......................................................:::..................",
"........................:::......................................................:::......................................................:::...................",
".......................:::......................................................:::......................................................:::....................",
"......................:::......................................................:::......................................................:::...............*.....",
"......................:::.............+........................................:::......................................................:::.....................",
".....................:::......................................................:::......................................................:::.....*................",
"....................:::...................+..................................:::...................*..................................:::.......................",
"....................:::......................................................:::......................................................:::.......................",
"...................:::......................................................:::......................................................:::........................",
"..................::+......................................................:::........................*.............................:::.........................",
"..................:::......................................................:::.......*..............................................:::.........................",
".................:::......................................................:::......................................*...............:::..........................",
"................:::......................................................:::........+.................................*...........:::...........................",
"..........*....:::.................................................+....:::......................................................:::............................",
"...............:::........................*.............................:::......................................................:::............................",
"..............:::...............+......................................:::......................................................:::.............................",
".............:::.............................*........................:::......................................................:::..............................",
".............:::......................................................:::......................................................:::.......................*......",
"............:::......................................................:::......................................................:::...............................",
"...........:::......................................................:::......................................................:::................................",
"...........:::......................................................:::....*.................................................:::................................",
"..........:::.......................................*..............:::......................................................:::.................................",
".........:::......................................................:::....................................................*.:::.............+....................",
"........:::......................................................:::..............................*.......................:::...................................",
"........:*:......................................................:::......................................................:::..........+........................",
".*.....:::......................................................:::......................................................:::....................+...............",
"......:::...........*..........................................:::......................................................:::.....................................",
"......:::......................................................:::......................................................:::.....*...............................",
".....:::*.....................................................:::......................................................:::......................................",
"....:::......................................................:::......................................................:::..........*............................",
"....:::......................................................:::......................................................:::....................................+..",
"...:::.......+.........................................*....:::......................................................:::........................................",
"..:::.....................................................*:::......................................................:::.........................................",
".:::......................................................:::...........................*..........................:::.................................+........",
".:::......................................................:::..........*...........................................:::..........................................",
":::......................................................:::......................................................:::...........................................",
"::......................................................:::.............................+........................:::............................................",
"::......................................................:::...............*......................................:::............................................",
":.............................*........................:::........................+.............................:::.............................................",
"......................................................:::......................................................:::..............................................",
"...................*..................................:::......................................................:::..............................................",
".....................................................:::......................................................:::...............................................",
".....*..............................................:::......................................................:::................................................",
"....................................................:::......................................................:::...........................................+*...",
"...............................*...................:::...............+......................................:::.................................................",
"..................................................:::......................................................:::............+.....................................",
"..............*..................................:::......................................................:::...................................................",
".................................................:::......................................................:::...*...............................................",
"................................................:::......................................................:::...........*........................................",
"...............................................:::......................................................:::..............................*..+...................",
"...............................................:::..........................*...........................:::.....................................................",
"...........+..................................:::......................................................:::........................*.............................",
"..............+..............................:::......................................................:::......................................................:",
".................................+..........:::..............................*.......................:::......................................................::",
"............................................:::..............................................+.......:::.........*............................................::",
"........................................+..:::......................................................:::...............................................*......:::",
"..........................................:::..........................................*...........:::......................................................:::.",
"..........................................:::......................................................:::......................................................:::.",
".........................................:::......................................................:::......................................*...............:::..",
"...........*............................:::..............................+.......................:::......................................................:::...",
"..*............+........................:::......................................................:::......................................................:::...",
".......................................:::......................+...............................:::............................*.........................:::....",
"......................................:::.........+............................................:::............................*.........................:::.....",
".....................................:::....................................................*.:::......................................................:::......",
".....................................:::......................................................:::...............................................*......:::......",
"....................................:::......................................................:::....................*.................................:::.......",
"...................................:::......................................................::*......................................................:::........",
"...............*...................:::......................................................:::......................................................:::........",
"............*.....................:::......................................................:::......................................................:::.........",
".................................:::..*...................................................:::......................................................:::..........",
".................................:::...*.......................................+..........:::......................................................:::..........",
"................................:::......................................................:::..............................................*.......:::...........",
"...............................:::......................................................:::...........+...........*..............................:::............",
};
